public/img/events/tibedetha.svg

<svg width="200" height="200" viewBox="0 0 200 200" fill="none" xmlns="http://www.w3.org/2000/svg">
<path d="M60.6831 101.887C54.5985 93.7926 50.2955 84.5024 48.0824 74.6264C47.7865 73.3072 45.9124 73.1531 45.2651 74.2565C40.6353 82.1598 37.0413 90.6856 34.637 99.532C34.3473 100.611 34.0699 101.696 33.811 102.781C33.5397 103.927 33.1205 105.179 33.1082 106.363C33.0835 109.155 36.0858 109.42 38.1941 109.778C42.9656 110.592 47.8296 110.801 52.6443 110.308C56.2322 109.944 61.7311 108.588 61.5277 103.952C61.4414 101.973 58.359 101.967 58.4453 103.952C58.47 104.507 58.3898 104.797 58.1309 105.136C57.7364 105.654 57.2432 105.943 56.6637 106.239C55.2951 106.936 53.8032 107.115 52.3422 107.256C48.1995 107.651 43.9828 107.577 39.8709 106.948C38.8537 106.794 37.8427 106.603 36.8378 106.387C36.6467 106.344 36.394 106.233 36.1967 106.245C36.1289 106.227 36.0611 106.208 35.9871 106.184C35.8761 106.122 35.9316 106.202 36.1597 106.418C36.1967 106.412 36.3755 105.333 36.394 105.234C36.8194 103.28 37.3064 101.338 37.8489 99.4087C38.9462 95.5126 40.2778 91.6781 41.8313 87.9361C43.5698 83.7626 45.6165 79.7123 47.9036 75.8101C46.9665 75.6868 46.0233 75.5635 45.0863 75.4402C47.3487 85.5442 51.775 95.155 57.9953 103.434C58.4946 104.1 59.3269 104.439 60.1036 103.989C60.7879 103.613 61.1886 102.553 60.6831 101.887Z" fill="black"/>
<path d="M130.666 115.579C131.695 127.347 132.503 139.128 133.31 150.909C133.366 151.741 133.976 152.45 134.851 152.45C135.64 152.45 136.448 151.741 136.393 150.909C135.585 139.128 134.777 127.341 133.748 115.579C133.674 114.747 133.094 114.038 132.207 114.038C131.43 114.038 130.598 114.747 130.666 115.579Z" fill="black"/>
<path d="M48.6619 81.6234C53.7724 73.0359 60.9605 65.6814 69.9487 61.1811C74.3812 58.9618 79.239 57.4699 84.1585 56.8658C89.5958 56.2 95.1564 56.9213 100.31 58.7152C106.105 60.7311 111.351 64.1464 115.901 68.2274C117.374 69.5467 119.563 67.3767 118.083 66.0451C109.348 58.2097 98.2264 52.9758 86.2976 53.5985C75.6141 54.1533 65.3683 58.9495 57.4466 66.0081C52.9155 70.0399 49.0934 74.8545 45.9987 80.0637C44.9815 81.7775 47.6447 83.331 48.6619 81.6234Z" fill="black"/>
<path d="M117.8 68.2891C127.256 60.5153 136.941 53.0005 145.954 44.7027C154.862 36.5036 163.308 27.799 171.242 18.6505C175.853 13.3365 180.279 7.86836 184.539 2.27076C183.584 2.01184 182.622 1.75293 181.666 1.49401C181.839 6.72172 181.229 11.9186 179.811 16.9552C179.108 19.4581 177.992 21.7637 176.969 24.1495C175.939 26.5414 174.978 28.9518 174.25 31.4547C174.108 31.954 174.244 32.6075 174.645 32.9527C176.069 34.1795 177.308 35.7207 177.567 37.5824C177.795 39.2469 177.302 40.9546 176.605 42.4711C174.885 46.2131 172.012 49.4434 169.953 52.8279C169.405 53.7279 169.331 54.8561 169.503 55.8671C169.571 56.2801 169.701 56.6993 169.916 57.063C170.218 57.5871 170.705 57.8706 171.162 58.2405C172.672 59.4611 174.022 61.0085 174.509 62.9257C174.996 64.8306 174.343 66.4951 173.399 68.1288C172.259 70.0892 171.094 72.0434 169.904 73.973C165.237 81.5186 160.077 88.7745 154.11 95.3585C151.083 98.7059 147.859 101.875 144.462 104.84C143.581 105.61 142.68 106.369 141.774 107.115C141.337 107.472 140.911 107.879 140.437 108.193C140.054 108.446 139.61 108.644 139.216 108.89C138.211 109.519 137.237 110.228 136.349 111.017C135.443 111.818 134.309 112.373 133.248 112.959C128.828 115.406 124.186 117.404 119.47 119.204C117.084 120.116 114.686 120.979 112.282 121.836C111.277 122.194 110.223 122.471 109.317 123.051C108.46 123.593 107.714 124.296 106.962 124.974C106.241 125.634 105.513 126.213 104.632 126.657C102.856 127.545 104.416 130.202 106.185 129.32C108.028 128.402 109.237 126.719 110.957 125.658C111.875 125.091 113.016 124.838 114.033 124.475C115.235 124.043 116.431 123.612 117.633 123.168C122.559 121.355 127.447 119.401 132.139 117.028C133.335 116.423 134.518 115.788 135.683 115.117C136.226 114.802 136.768 114.488 137.305 114.161C137.866 113.816 138.31 113.366 138.815 112.94C139.654 112.231 140.591 111.615 141.552 111.085C142.57 110.524 143.463 109.692 144.357 108.946C147.964 105.962 151.379 102.75 154.597 99.3532C160.897 92.6891 166.378 85.2853 171.285 77.5547C172.536 75.582 173.757 73.5846 174.947 71.5687C176.143 69.5467 177.425 67.5924 177.709 65.2128C177.955 63.1045 177.333 60.9407 176.18 59.1776C175.569 58.2467 174.836 57.3836 174.01 56.6315C173.572 56.2308 173.11 55.8301 172.623 55.491C172.296 55.263 172.586 55.3431 172.58 55.4972C172.573 55.6452 172.586 55.4602 172.573 55.4849C172.598 55.4417 172.506 55.1273 172.499 55.0657C172.493 54.8622 172.506 54.7266 172.524 54.6218C172.555 54.4554 172.641 54.2828 172.506 54.517C172.789 54.03 173.159 53.5615 173.473 53.0929C174.078 52.1991 174.7 51.3175 175.323 50.4298C176.531 48.7098 177.733 46.9714 178.72 45.1096C180.662 41.4416 181.636 37.0954 179.188 33.4027C178.529 32.4102 177.721 31.5348 176.821 30.7581C176.95 31.2574 177.086 31.7568 177.215 32.2561C177.943 29.7347 178.911 27.3058 179.959 24.9077C181.025 22.4542 182.141 20.0684 182.85 17.4792C184.28 12.2823 184.915 6.8635 184.736 1.48168C184.681 -0.158146 182.758 -0.46638 181.864 0.704922C174.491 10.3897 166.557 19.643 158.136 28.4278C149.751 37.1694 140.874 45.3809 131.547 53.1053C126.264 57.4761 120.9 61.7483 115.605 66.1006C114.964 66.6307 115.056 67.7342 115.605 68.2829C116.258 68.924 117.158 68.8192 117.8 68.2891Z" fill="black"/>
<path d="M85.5704 114.167C86.6677 106.825 89.5158 99.9697 93.5475 93.7618C97.5608 87.5724 102.604 82.1166 107.936 77.0554C110.938 74.2072 114.045 71.4763 117.196 68.7884C117.83 68.2459 117.75 67.1671 117.196 66.6061C116.567 65.9773 115.648 66.0636 115.013 66.6061C103.682 76.2909 92.1728 86.9868 86.1807 100.95C84.473 104.926 83.2401 109.063 82.5989 113.347C82.4756 114.167 82.8024 115.006 83.6778 115.246C84.4052 115.443 85.4471 114.993 85.5704 114.167Z" fill="black"/>
<path d="M92.5796 54.7389C91.7659 51.4408 93.3132 48.1858 95.5449 45.8062C98.2019 42.9643 101.728 41.4416 105.384 40.3073C109.391 39.062 113.503 38.1989 117.374 36.5529C120.82 35.0857 124.001 33.076 126.849 30.6409C130.049 27.8976 132.768 24.581 134.845 20.913C135.825 19.1868 133.187 17.6457 132.182 19.3595C131.183 21.0609 130.579 22.9227 130.363 24.8831C130.141 26.8866 130.598 28.7299 130.887 30.6964C131.387 34.0747 129.032 36.7317 126.418 38.5133C123.681 40.3812 120.555 41.6204 117.898 43.6116C115.309 45.5535 112.849 48.2043 112.307 51.5148C111.962 53.6231 112.597 55.4417 113.047 57.4699C113.213 58.2159 113.318 58.9988 112.868 59.6584C112.708 59.8865 112.523 60.1023 112.27 60.2256C112.184 60.2687 112.036 60.2441 112.048 60.2502C110.285 59.344 108.725 62.0072 110.494 62.9134C112.282 63.8258 114.138 63.0983 115.291 61.5572C116.499 59.9358 116.376 58.0124 115.895 56.1445C115.469 54.4677 115.001 52.9758 115.531 51.2682C115.999 49.7702 117.017 48.4941 118.132 47.4214C123.077 42.6684 131.923 41.3984 133.797 33.8158C134.383 31.4485 133.538 29.3463 133.39 27.0037C133.255 24.8522 133.76 22.7686 134.845 20.913C133.957 20.3951 133.07 19.8773 132.182 19.3595C128.52 25.8324 122.664 31.128 115.741 33.9268C108.139 36.9968 99.0464 37.3913 93.2023 43.8088C90.2987 47.0022 88.5417 51.2435 89.6082 55.565C90.0829 57.4884 93.0543 56.6685 92.5796 54.7389Z" fill="black"/>
<path d="M73.1482 149.201C67.6986 165.754 54.4567 178.133 40.7587 188.156C36.542 191.245 32.2143 194.186 27.8928 197.126C26.703 197.94 27.0482 200.054 28.6696 199.999C38.7551 199.666 48.8036 197.977 58.4515 194.999C68.087 192.028 77.3588 187.793 85.897 182.423C90.7301 179.384 95.329 175.969 99.6567 172.239C100.285 171.697 100.218 170.618 99.6567 170.057C99.034 169.434 98.1093 169.514 97.4743 170.057C90.0643 176.45 81.7851 181.813 72.9571 186.036C64.0984 190.283 54.6663 193.335 45.0062 195.141C39.612 196.146 34.15 196.732 28.6634 196.91C28.9223 197.866 29.1812 198.828 29.4402 199.783C44.5191 189.525 60.0728 178.829 69.9303 163.091C72.4948 158.997 74.597 154.608 76.1073 150.015C76.7423 148.129 73.7647 147.321 73.1482 149.201Z" fill="black"/>
<path d="M75.8298 55.9781C75.7065 55.6575 75.6141 55.3308 75.5586 54.9917C75.6264 55.3862 75.5586 54.8499 75.5586 54.7698C75.5524 54.5971 75.5709 54.4307 75.5709 54.2581C75.5771 53.9252 75.5031 54.5108 75.5833 54.1595C75.6202 53.993 75.6511 53.8266 75.6942 53.6601C75.7374 53.4937 75.799 53.3334 75.8545 53.1731C75.9161 53.0066 75.9161 53.0128 75.8483 53.1854C75.8853 53.1053 75.9223 53.0313 75.9593 52.9512C76.0949 52.6799 76.2552 52.4272 76.4278 52.1806C76.5326 52.0388 76.5326 52.0449 76.4217 52.1867C76.4771 52.1189 76.5326 52.0573 76.5881 51.9956C76.7052 51.8662 76.8224 51.749 76.9518 51.6319C77.0135 51.5764 77.0813 51.5209 77.1429 51.4655C76.995 51.5764 76.995 51.5764 77.1368 51.4716C77.2416 51.4038 77.3464 51.3298 77.4573 51.262C77.6053 51.1757 77.7532 51.0956 77.9074 51.0278C77.5745 51.1881 78.0676 50.9784 78.1416 50.9599C78.3142 50.9106 78.4807 50.8736 78.6533 50.8428C78.2896 50.9106 78.8321 50.8367 78.9122 50.8367C79.0478 50.8367 79.1773 50.8367 79.3129 50.8428C79.3992 50.849 79.4917 50.8552 79.578 50.8675C79.3869 50.8428 79.3807 50.8428 79.5657 50.8737C79.7383 50.923 79.9109 50.9538 80.0835 51.0031C80.1452 51.0216 80.6568 51.2312 80.3424 51.0833C80.626 51.2127 80.9034 51.3668 81.1685 51.5394C81.2425 51.5888 81.3165 51.6381 81.3905 51.6936C81.2548 51.5888 81.261 51.5949 81.3966 51.7059C81.5322 51.8292 81.6679 51.9463 81.7912 52.0758C81.9145 52.2052 82.0377 52.3408 82.1487 52.4765C81.9453 52.2176 82.2042 52.569 82.2227 52.5998C82.3213 52.7477 82.4076 52.9018 82.4939 53.0621C82.5371 53.1423 82.5741 53.2224 82.6111 53.3026C82.5432 53.1361 82.5433 53.1423 82.6049 53.3026C82.6542 53.4752 82.7159 53.6416 82.7529 53.8142C82.7714 53.9005 82.7898 53.9868 82.8022 54.0793C82.7775 53.8944 82.7775 53.8882 82.796 54.0732C82.87 54.8746 83.4556 55.6513 84.3372 55.6143C85.1078 55.5774 85.9585 54.9301 85.8784 54.0732C85.6071 51.0401 83.2337 48.3769 80.1945 47.8714C76.995 47.3351 74.1962 49.1968 72.9879 52.1189C72.3838 53.58 72.2974 55.3246 72.8708 56.8103C73.1605 57.5624 73.9188 58.1604 74.7695 57.8891C75.4846 57.6425 76.1381 56.7856 75.8298 55.9781Z" fill="black"/>
<path d="M35.1178 109.075C34.2424 112.336 33.3609 115.591 32.4855 118.852C32.0478 120.468 31.6039 122.077 31.1785 123.692C30.8518 124.949 30.6422 126.262 30.8518 127.557C31.3388 130.547 34.4582 131.7 37.0166 130.38C39.7907 128.95 40.1914 125.541 40.6907 122.798C41.3627 119.117 42.0347 115.431 42.7005 111.751C42.8484 110.931 42.4785 110.086 41.6216 109.852C40.8757 109.648 39.877 110.105 39.7229 110.931C39.2174 113.717 38.7057 116.504 38.2002 119.29C37.9413 120.726 37.6823 122.163 37.4173 123.593C37.2138 124.69 37.0289 125.88 36.4124 126.836C36.0364 127.415 35.3336 127.964 34.6431 127.89C34.0143 127.822 33.8479 127.187 33.8294 126.626C33.7985 125.56 34.1315 124.536 34.4027 123.513C34.7726 122.132 35.1486 120.751 35.5185 119.364C36.3693 116.201 37.22 113.045 38.0707 109.883C38.6071 107.978 35.6357 107.158 35.1178 109.075Z" fill="black"/>
<path d="M36.8254 140.127C34.1129 141.798 31.721 144.479 30.7778 147.574C30.2785 149.208 30.7778 150.934 32.3005 151.809C33.6383 152.58 35.2596 152.524 36.6343 151.902C38.0645 151.248 39.0632 150.015 40.2962 149.084C41.4798 148.19 42.8484 147.611 44.2909 147.296C47.0158 146.705 49.944 147.278 52.2003 148.93C54.697 150.761 56.269 153.782 56.3369 156.87C56.3492 157.475 56.7992 158.264 57.4712 158.356C59.524 158.633 60.9912 157.604 62.1749 156.007C63.2414 154.577 64.0921 152.888 64.7887 151.254C66.2189 147.901 66.3854 144.183 64.086 141.175C62.2057 138.721 59.3453 137.26 56.4663 136.311C52.9339 135.146 48.8405 134.351 45.1787 135.275C41.1407 136.292 37.8981 139.141 34.8835 141.859C33.404 143.191 35.5925 145.367 37.0658 144.041C39.2728 142.056 41.56 139.991 44.3218 138.808C47.324 137.525 50.542 137.963 53.6244 138.709C57.9027 139.751 63.8209 142.383 62.7112 147.771C62.3537 149.516 61.5337 151.094 60.6645 152.629C60.3069 153.264 59.9556 153.93 59.4871 154.491C59.2466 154.78 58.6671 155.428 58.3034 155.378C58.6795 155.872 59.0555 156.371 59.4377 156.864C59.3021 150.897 54.9375 145.318 48.9761 144.233C45.9369 143.678 42.7744 144.134 40.0496 145.601C38.6934 146.329 37.6145 147.377 36.4555 148.363C36.024 148.733 35.537 149.097 34.9822 149.251C34.6185 149.349 34.1992 149.325 33.8787 149.14C33.7492 149.066 33.6814 148.905 33.6999 149.01C33.6567 148.659 33.7677 148.357 33.9033 148.012C34.1869 147.29 34.5938 146.6 35.0253 145.959C35.9007 144.664 37.072 143.591 38.3974 142.778C40.0681 141.754 38.5207 139.085 36.8254 140.127Z" fill="black"/>
<path d="M31.7088 158.091C32.4301 160.403 31.191 162.616 29.7977 164.416C28.0531 166.672 25.8954 168.639 23.9104 170.686C21.7835 172.874 19.6197 175.032 17.5299 177.251C15.9702 178.903 14.3242 181.468 15.2859 183.81C16.4264 186.597 19.5642 186.258 21.9685 185.777C24.4344 185.284 26.8695 184.624 29.2491 183.81C33.9774 182.195 38.527 180.007 42.719 177.294C47.4721 174.218 51.7997 170.488 55.5047 166.216C56.0472 165.587 56.1212 164.656 55.5047 164.034C54.9499 163.479 53.8711 163.405 53.3224 164.034C47.2008 171.099 39.3592 176.665 30.6361 180.037C28.4415 180.882 26.1975 181.603 23.9227 182.177C22.8007 182.46 21.6726 182.713 20.5383 182.923C19.9033 183.04 18.6888 183.366 18.1957 182.775C18.0662 182.621 18.06 182.436 18.0662 182.3C18.1032 181.825 18.3374 181.351 18.5717 180.944C19.1635 179.908 20.0204 179.1 20.8465 178.25C22.8747 176.16 24.9091 174.07 26.9373 171.98C30.6053 168.207 36.5296 163.245 34.674 157.271C34.0946 155.385 31.117 156.186 31.7088 158.091Z" fill="black"/>
</svg>

<svg xmlns="http://www.w3.org/2000/svg" width="200" height="200" fill="none"><path fill="#000" d="M60.683 101.887a71.3 71.3 0 0 1-12.6-27.26c-.297-1.32-2.17-1.474-2.818-.37a104.1 104.1 0 0 0-10.628 25.275 120 120 0 0 0-.826 3.249c-.271 1.146-.69 2.398-.703 3.582-.024 2.792 2.978 3.057 5.086 3.415 4.772.814 9.636 1.023 14.45.53 3.588-.364 9.087-1.72 8.884-6.356-.087-1.979-3.169-1.985-3.083 0 .025.555-.055.845-.314 1.184-.395.518-.888.807-1.467 1.103-1.369.697-2.86.876-4.322 1.017-4.142.395-8.36.321-12.471-.308a50 50 0 0 1-3.033-.561c-.191-.043-.444-.154-.641-.142a4 4 0 0 1-.21-.061q-.167-.091.173.234c.037-.006.216-1.085.234-1.184q.639-2.931 1.455-5.825a102 102 0 0 1 3.982-11.473 100 100 0 0 1 6.073-12.126l-2.818-.37a73.5 73.5 0 0 0 12.91 27.994c.499.666 1.33 1.005 2.108.555.684-.376 1.085-1.436.58-2.102M130.666 115.579c1.029 11.768 1.837 23.549 2.644 35.33.056.832.666 1.541 1.541 1.541.789 0 1.597-.709 1.542-1.541-.808-11.781-1.616-23.568-2.645-35.33-.074-.832-.654-1.541-1.541-1.541-.777 0-1.609.709-1.541 1.541"/><path fill="#000" d="M48.662 81.623c5.11-8.587 12.299-15.942 21.287-20.442 4.432-2.22 9.29-3.711 14.21-4.315 5.437-.666 10.997.055 16.151 1.85 5.795 2.015 11.041 5.43 15.591 9.511 1.473 1.32 3.662-.85 2.182-2.182-8.735-7.835-19.857-13.07-31.785-12.446-10.684.554-20.93 5.35-28.851 12.41-4.532 4.03-8.354 8.846-11.448 14.055-1.018 1.714 1.646 3.267 2.663 1.56"/><path fill="#000" d="M117.8 68.29c9.456-7.775 19.141-15.29 28.154-23.587a323 323 0 0 0 25.288-26.053 329 329 0 0 0 13.297-16.38l-2.873-.776a50.7 50.7 0 0 1-1.855 15.461c-.703 2.503-1.819 4.809-2.842 7.195-1.03 2.391-1.991 4.802-2.719 7.305-.142.499-.006 1.153.395 1.498 1.424 1.226 2.663 2.768 2.922 4.63.228 1.664-.265 3.372-.962 4.888-1.72 3.742-4.593 6.972-6.652 10.357-.548.9-.622 2.028-.45 3.04.068.412.198.831.413 1.195.302.524.789.808 1.246 1.177 1.51 1.221 2.86 2.768 3.347 4.686.487 1.905-.166 3.57-1.11 5.203a263 263 0 0 1-3.495 5.844c-4.667 7.546-9.827 14.802-15.794 21.386a115 115 0 0 1-12.336 11.756c-.437.357-.863.764-1.337 1.078-.383.253-.827.451-1.221.697a21.5 21.5 0 0 0-2.867 2.127c-.906.801-2.04 1.356-3.101 1.942-4.42 2.447-9.062 4.445-13.778 6.245a338 338 0 0 1-7.188 2.632c-1.005.358-2.059.635-2.965 1.215-.857.542-1.603 1.245-2.355 1.923-.721.66-1.449 1.239-2.33 1.683-1.776.888-.216 3.545 1.553 2.663 1.843-.918 3.052-2.601 4.772-3.662.918-.567 2.059-.82 3.076-1.183 1.202-.432 2.398-.863 3.6-1.307 4.926-1.813 9.814-3.767 14.506-6.14a74 74 0 0 0 3.544-1.911c.543-.315 1.085-.629 1.622-.956.561-.345 1.005-.795 1.51-1.221a17 17 0 0 1 2.737-1.855c1.018-.561 1.911-1.393 2.805-2.139a116 116 0 0 0 10.24-9.593c6.3-6.664 11.781-14.068 16.688-21.798a220 220 0 0 0 3.662-5.986c1.196-2.022 2.478-3.977 2.762-6.356.246-2.108-.376-4.272-1.529-6.035a13.4 13.4 0 0 0-2.17-2.546c-.438-.401-.9-.802-1.387-1.141-.327-.228-.037-.148-.043.006-.007.148.006-.037-.007-.012.025-.043-.067-.358-.074-.42-.006-.203.007-.338.025-.443.031-.167.117-.34-.018-.105.283-.487.653-.956.967-1.424.605-.894 1.227-1.776 1.85-2.663 1.208-1.72 2.41-3.459 3.397-5.32 1.942-3.668 2.916-8.015.468-11.707-.659-.993-1.467-1.868-2.367-2.645.129.5.265.999.394 1.498.728-2.521 1.696-4.95 2.744-7.348 1.066-2.454 2.182-4.84 2.891-7.429a53.7 53.7 0 0 0 1.886-15.997c-.055-1.64-1.978-1.948-2.872-.777a322 322 0 0 1-23.728 27.723c-8.385 8.741-17.262 16.953-26.589 24.677-5.283 4.371-10.647 8.643-15.942 12.996-.641.53-.549 1.633 0 2.182.653.641 1.553.536 2.195.006"/><path fill="#000" d="M85.57 114.167c1.098-7.342 3.946-14.197 7.978-20.405 4.013-6.19 9.056-11.645 14.388-16.707 3.002-2.848 6.109-5.579 9.26-8.267.634-.542.554-1.62 0-2.182-.629-.629-1.548-.542-2.183 0-11.331 9.685-22.84 20.38-28.832 34.344-1.708 3.976-2.94 8.113-3.582 12.397-.123.82.203 1.659 1.079 1.899.727.197 1.77-.253 1.892-1.079M92.58 54.739c-.814-3.298.733-6.553 2.965-8.933 2.657-2.842 6.183-4.364 9.839-5.499 4.007-1.245 8.119-2.108 11.99-3.754 3.446-1.467 6.627-3.477 9.475-5.912a36.6 36.6 0 0 0 7.996-9.728c.98-1.726-1.658-3.267-2.663-1.553a13.8 13.8 0 0 0-1.819 5.523c-.222 2.004.235 3.847.524 5.813.5 3.379-1.855 6.036-4.469 7.817-2.737 1.868-5.863 3.107-8.52 5.099-2.589 1.941-5.049 4.592-5.591 7.903-.345 2.108.29 3.927.74 5.955.166.746.271 1.529-.179 2.188-.16.228-.345.444-.598.568-.086.043-.234.018-.222.024-1.763-.906-3.323 1.757-1.554 2.663 1.788.913 3.644.185 4.797-1.356 1.208-1.621 1.085-3.545.604-5.413-.426-1.676-.894-3.168-.364-4.876.468-1.498 1.486-2.774 2.601-3.847 4.945-4.753 13.791-6.023 15.665-13.605.586-2.368-.259-4.47-.407-6.812a10.65 10.65 0 0 1 1.455-6.091l-2.663-1.553c-3.662 6.472-9.518 11.768-16.441 14.567-7.602 3.07-16.695 3.464-22.539 9.882-2.903 3.193-4.66 7.435-3.594 11.756.475 1.923 3.446 1.104 2.972-.826M73.148 149.201c-5.45 16.553-18.691 28.932-32.39 38.955-4.216 3.089-8.544 6.03-12.865 8.97-1.19.814-.845 2.928.777 2.873a114 114 0 0 0 29.782-5 115.7 115.7 0 0 0 27.445-12.576 114 114 0 0 0 13.76-10.184c.628-.542.561-1.621 0-2.182-.623-.623-1.548-.543-2.183 0-7.41 6.393-15.689 11.756-24.517 15.979-8.859 4.247-18.29 7.299-27.95 9.105a108.4 108.4 0 0 1-16.344 1.769c.26.956.518 1.918.777 2.873 15.08-10.258 30.633-20.954 40.49-36.692 2.565-4.094 4.667-8.483 6.177-13.076.635-1.886-2.342-2.694-2.959-.814M75.83 55.978a5 5 0 0 1-.271-.986c.067.394 0-.142 0-.222-.007-.173.012-.34.012-.512.006-.333-.068.253.012-.099.037-.166.068-.332.111-.499s.105-.327.16-.487q.095-.248-.006.012l.111-.234c.136-.271.296-.524.469-.77.105-.142.105-.136-.006.006q.082-.1.166-.191c.117-.13.234-.247.364-.364.061-.056.13-.111.19-.166q-.22.163-.005.006c.105-.068.21-.142.32-.21q.22-.13.45-.234c-.332.16.16-.05.235-.068.172-.05.339-.086.511-.117-.363.068.18-.006.26-.006.135 0 .264 0 .4.006.086.006.179.012.265.024q-.288-.038-.012.007c.172.049.345.08.517.13.062.018.574.227.26.08q.426.195.825.455.112.074.222.155c-.135-.105-.129-.1.007.012.135.123.27.24.394.37s.247.265.358.4c-.204-.258.055.093.074.124a6 6 0 0 1 .388.703c-.068-.167-.068-.16-.006 0 .05.172.11.339.148.511a3 3 0 0 1 .05.265c-.025-.185-.025-.19-.007-.006.074.802.66 1.578 1.541 1.541.77-.037 1.621-.684 1.541-1.54-.27-3.034-2.644-5.697-5.683-6.203-3.2-.536-5.999 1.326-7.207 4.248-.604 1.461-.69 3.206-.117 4.691.29.752 1.048 1.35 1.898 1.08.716-.248 1.37-1.104 1.06-1.912M35.118 109.075c-.876 3.261-1.757 6.516-2.633 9.777-.437 1.616-.881 3.225-1.306 4.84-.327 1.257-.537 2.57-.327 3.865.487 2.99 3.606 4.143 6.165 2.823 2.774-1.43 3.174-4.839 3.674-7.582.672-3.681 1.344-7.367 2.01-11.047.147-.82-.223-1.665-1.08-1.899-.745-.204-1.744.253-1.898 1.079-.506 2.786-1.017 5.573-1.523 8.359-.259 1.436-.518 2.873-.783 4.303-.203 1.097-.388 2.287-1.005 3.243-.376.579-1.078 1.128-1.769 1.054-.629-.068-.795-.703-.814-1.264-.03-1.066.303-2.09.574-3.113.37-1.381.746-2.762 1.116-4.149.85-3.163 1.701-6.319 2.552-9.481.536-1.905-2.435-2.725-2.953-.808M36.825 140.127c-2.712 1.671-5.104 4.352-6.047 7.447-.5 1.634 0 3.36 1.523 4.235 1.337.771 2.959.715 4.333.093 1.43-.654 2.43-1.887 3.662-2.818 1.184-.894 2.552-1.473 3.995-1.788 2.725-.591 5.653-.018 7.91 1.634 2.496 1.831 4.068 4.852 4.136 7.94.012.605.462 1.394 1.134 1.486 2.053.277 3.52-.752 4.704-2.349 1.066-1.43 1.917-3.119 2.614-4.753 1.43-3.353 1.596-7.071-.703-10.079-1.88-2.454-4.74-3.915-7.62-4.864-3.532-1.165-7.626-1.96-11.287-1.036-4.038 1.017-7.28 3.866-10.296 6.584-1.479 1.332.71 3.508 2.183 2.182 2.207-1.985 4.494-4.05 7.256-5.233 3.002-1.283 6.22-.845 9.302-.099 4.279 1.042 10.197 3.674 9.087 9.062-.357 1.745-1.177 3.323-2.047 4.858-.357.635-.708 1.301-1.177 1.862-.24.289-.82.937-1.184.887.377.494.753.993 1.135 1.486-.136-5.967-4.5-11.546-10.462-12.631-3.04-.555-6.202-.099-8.926 1.368-1.357.728-2.435 1.776-3.594 2.762-.432.37-.919.734-1.474.888-.364.098-.783.074-1.103-.111-.13-.074-.198-.235-.18-.13-.042-.351.069-.653.204-.998.284-.722.69-1.412 1.122-2.053.876-1.295 2.047-2.368 3.372-3.181 1.671-1.024.124-3.693-1.572-2.651M31.709 158.091c.721 2.312-.518 4.525-1.911 6.325-1.745 2.256-3.903 4.223-5.888 6.27-2.126 2.188-4.29 4.346-6.38 6.565-1.56 1.652-3.206 4.217-2.244 6.559 1.14 2.787 4.278 2.448 6.682 1.967a57 57 0 0 0 7.281-1.967 61.3 61.3 0 0 0 13.47-6.516 60.3 60.3 0 0 0 12.786-11.078c.542-.629.616-1.56 0-2.182-.555-.555-1.634-.629-2.183 0-6.121 7.065-13.963 12.631-22.686 16.003a59 59 0 0 1-6.713 2.14c-1.122.283-2.25.536-3.385.746-.635.117-1.85.443-2.342-.148-.13-.154-.136-.339-.13-.475.037-.475.271-.949.506-1.356.591-1.036 1.448-1.844 2.274-2.694 2.029-2.09 4.063-4.18 6.091-6.27 3.668-3.773 9.593-8.735 7.737-14.709-.58-1.886-3.557-1.085-2.965.82"/></svg>
